packages/core/src/svgs/tokens/branded/MRS.svg

<svg width="24" height="24" viewBox="0 0 24 24" fill="none" xmlns="http://www.w3.org/2000/svg">
<path d="M7.94872 6.04549C7.94872 6.04549 7.05418 6.31497 7.51422 7.2784C7.51422 7.2784 6.85916 6.94504 6.37244 7.19561C5.88627 7.4473 5.18342 7.78679 4.63391 7.39008C4.08552 6.99449 4.23499 6.28885 4.35444 5.76157C4.47445 5.23374 4.44779 4.44921 3.38211 4.24474C3.38211 4.24474 4.30721 3.99583 4.82671 4.66312C5.34454 5.32986 4.82949 6.27163 5.59902 6.60555C6.36855 6.94059 6.69192 5.66101 7.94872 6.04549ZM6.19574 7.77845C6.19574 7.77845 6.13796 8.28574 5.64346 8.34685C5.64346 8.34685 5.80348 9.47085 7.10919 9.04138C7.10919 9.04138 6.94917 9.92317 6.23242 10.222C5.51567 10.521 3.83994 11.3655 4.00107 14.048C4.00107 14.048 3.19265 12.8013 3.84606 10.5654C4.17831 9.42975 5.42233 8.89913 5.42233 8.89913C5.42233 8.89913 4.76671 8.84468 4.16275 9.40029C4.16275 9.40029 4.63669 7.9657 6.19574 7.77845ZM8.44933 6.03772C7.98372 5.41209 7.42532 5.48765 6.94694 5.73824C6.51078 5.96771 5.88015 6.24662 5.56234 5.83603C4.85004 4.91371 5.70292 4.21363 5.29009 3.36965C4.80672 2.38177 3.10986 2.17452 3.10986 2.17452C4.24331 1.84393 5.60457 2.00006 6.20853 2.499C6.81304 2.99739 6.40521 3.79524 7.02806 4.23697C7.6509 4.67867 8.56545 4.20863 9.09772 4.78258C9.62941 5.35597 9.48667 5.95381 9.32553 6.17217C9.1344 6.43219 8.73658 6.27219 8.39043 6.71057C8.04428 7.14894 8.22819 7.54732 8.22819 7.54732C7.07028 6.62722 8.44933 6.03772 8.44933 6.03772ZM15.9323 14.9592C15.9323 14.9592 15.7745 15.097 15.6812 15.3777C15.5846 15.6721 15.5412 16.0221 15.1 16.1099C15.1 16.1099 15.2412 16.0143 15.2767 15.9382C15.3934 15.686 15.3683 15.1465 15.9323 14.9592ZM11.5463 16.8783C11.5658 16.845 11.568 16.8245 11.633 16.8316C11.698 16.8389 12.0225 16.8528 12.1708 16.745C12.3181 16.6361 12.3453 16.7606 12.3053 16.8511C12.2642 16.9378 12.2024 17.0122 12.1253 17.0678C12.1253 17.0678 12.2853 17.2018 12.5903 17.1233C12.8959 17.0455 13.0099 16.995 12.9348 17.1411C12.8803 17.2478 12.7464 17.2978 12.6559 17.3462C12.5743 17.3895 12.267 17.5462 12.1963 17.5951C12.1625 17.6189 12.1348 17.6223 12.0881 17.5917C12.0403 17.5611 12.0719 17.4723 12.0142 17.4306C11.9564 17.3895 11.8764 17.4451 11.8419 17.4629C11.8074 17.4818 11.7731 17.5028 11.6769 17.4723C11.5808 17.4417 11.4158 17.4101 11.4324 17.2528C11.4479 17.0956 11.5235 16.9178 11.5463 16.8783ZM7.96817 14.4336C7.96817 14.4336 7.90983 14.6998 8.16818 15.0965C8.42543 15.4927 9.14829 16.4745 8.54211 17.8695C8.54211 17.8695 7.84593 17.4262 7.86759 16.7872C7.88815 16.1478 8.10873 16.1872 8.07262 15.7954C8.0365 15.4037 7.76814 14.8386 7.96817 14.4336ZM7.74703 13.0196C7.74703 13.0196 7.02973 13.9036 7.52034 14.8648C7.94816 15.702 7.68535 15.8911 7.23197 16.7188C6.65969 17.7651 7.3581 18.9563 7.3581 18.9563C6.69247 18.773 6.12518 18.0796 6.17241 17.0511C6.19185 16.6121 6.463 16.061 6.80359 15.4859C7.12363 14.947 6.66024 14.7931 7.06029 13.8297C7.24142 13.3941 7.74703 13.0196 7.74703 13.0196ZM12.9421 10.7526C12.9421 10.7526 12.937 10.9188 13.0437 10.9188C13.1332 10.9188 13.131 10.8399 13.131 10.8399C13.131 10.8399 13.1976 10.8443 13.2214 10.8321C13.2214 10.8321 13.1793 11.1455 12.952 11.1455C12.9103 11.1455 12.8648 11.0955 12.8648 11.0955C12.8293 11.0827 12.8037 11.0955 12.8203 11.1522C12.837 11.2088 12.8381 11.2805 12.9465 11.3428C13.0548 11.4055 13.2131 11.4471 13.3653 11.5689C13.4382 11.6272 13.6276 11.8212 13.7015 11.9395C13.7749 12.0562 13.6927 12.0023 13.6305 11.9695C13.5887 11.9478 13.3276 11.7489 13.1748 11.6938C13.0215 11.6384 12.8898 11.6522 12.8303 11.5645C12.772 11.476 12.6681 11.2599 12.6637 11.101C12.6598 10.9422 12.6609 10.9322 12.7009 10.9065L12.9421 10.7526ZM13.6699 10.1198C13.7566 10.1865 13.8077 10.1643 13.8605 10.236C13.9132 10.307 13.8232 10.5221 13.7299 10.5676C13.6366 10.6133 13.6032 10.5309 13.6076 10.511C13.6115 10.4904 13.681 10.3831 13.5398 10.2582C13.3993 10.1325 13.2749 10.1004 13.1565 10.202C13.0471 10.2965 13.0437 10.317 13.0376 10.3965C13.0309 10.4748 12.9926 10.5421 12.7897 10.6104C12.5875 10.6787 12.2763 10.6216 11.9936 10.4366C11.7114 10.2516 11.6019 10.0236 11.5808 9.86652C11.5808 9.86652 11.7819 10.0781 12.1253 10.1371C12.1253 10.1371 12.2702 9.64146 12.8387 9.56536C13.0276 9.54034 13.2704 9.67037 13.4137 9.82205C13.517 9.9303 13.5721 10.0454 13.6699 10.1198ZM12.4003 8.60021C12.2408 8.52687 12.1136 8.4652 12.1192 8.31518C12.1247 8.16517 12.2525 8.01127 12.4875 7.84457C12.7226 7.67789 12.9081 7.62232 13.0709 7.69622C13.6443 7.95514 13.671 8.03293 13.9832 8.60466C14.0744 8.77246 14.105 8.94692 14.1672 9.0147C14.2894 9.14639 14.4645 9.24416 14.585 9.43364C14.7056 9.62305 14.7011 9.90813 14.7499 10.0671C14.8306 10.3265 14.9256 10.3715 14.9701 10.5066C15 10.5999 15.0112 10.7944 15.0017 10.9966C14.9934 11.1982 15.0151 11.2638 15.0362 11.3827C15.0567 11.5016 15.0528 11.6183 14.8133 11.5521C14.5734 11.4872 14.5839 11.4244 14.5166 11.3927C14.4061 11.3399 14.2489 11.3477 14.1439 11.3666C13.9599 11.3999 14.096 11.5917 14.3194 11.6005C14.4528 11.6061 14.676 11.6228 14.8923 11.7505C15.1084 11.8778 15.264 11.9384 15.3479 12.1211C15.4312 12.3045 15.474 12.4056 15.7446 12.6029C16.0151 12.7996 16.2468 13.1051 16.2757 13.2807C16.3051 13.4552 16.3324 13.5824 16.4736 13.8385C16.5624 13.9997 16.5686 14.1525 16.5324 14.3276C16.5069 14.4503 16.4641 14.5408 16.4347 14.6108C16.4063 14.6798 16.3552 14.7253 16.2847 14.6409C16.214 14.5559 16.1068 14.3664 16.0618 14.2948C15.9174 14.0685 15.4662 13.9869 15.3457 13.8502C15.2345 13.7241 15.2034 13.5614 15.1661 13.4207C15.1295 13.2796 15.0805 13.223 15.0333 13.3985C14.9867 13.5758 15.0556 13.8297 15.1551 14.0497C15.255 14.2692 15.4173 14.7498 15.38 15.0498C15.3428 15.3498 15.23 15.5809 15.1522 15.6571C15.1179 15.6904 15.0178 15.7309 14.8461 15.7015C14.6738 15.6733 14.0783 15.5532 13.7333 15.4988C13.7333 15.4988 13.3515 15.8816 12.987 16.0899C12.6314 16.2944 12.6536 16.1104 12.8364 15.8816C13.0148 15.6577 13.1743 15.3876 13.1787 15.2804C13.1787 15.2804 12.9803 15.1548 13.1981 15.1459C13.4154 15.137 13.5443 15.1582 13.6927 15.2282C13.8415 15.297 14.0427 15.4132 13.9355 15.1881C13.8282 14.9637 13.2076 14.4197 13.1615 14.042C13.1164 13.6713 13.3882 13.1779 13.7143 13.1713C14.0405 13.1652 14.5734 13.4974 14.7422 14.0347C14.7422 14.0347 14.8122 13.8774 14.6833 13.6391C14.5539 13.4019 14.0843 12.8601 13.8026 12.8667C13.5271 12.8723 13.1543 12.9879 12.8459 13.7114C12.6458 14.1808 12.3308 14.0753 12.2636 14.0569C12.1847 14.0352 11.9948 13.798 12.1192 13.7014C12.2442 13.6052 12.3864 13.4907 12.4336 13.3363C12.4336 13.3363 11.6963 13.6985 11.1841 13.4335C10.6717 13.1696 10.8319 12.7162 10.8018 12.5962C10.7762 12.4979 10.7029 12.5018 10.6173 12.6229C10.5312 12.7434 10.3467 13.2213 10.749 13.5691C11.1518 13.9168 11.4824 13.8047 11.6496 13.769C11.8164 13.733 11.883 13.7941 11.8252 13.893C11.7663 13.9919 11.7685 14.1564 11.9202 14.2719C12.0719 14.3874 12.5753 14.5053 12.5648 14.7742C12.5581 14.9487 12.4514 14.8536 12.3686 14.8354C12.2209 14.8014 10.8529 14.4575 10.0684 15.466C9.85888 15.7355 9.9539 15.7604 10.0345 15.9049C10.0867 15.9988 10.2601 16.545 10.1707 17.2011C10.0978 17.7329 10.1357 17.8995 10.3596 18.1095C10.4539 18.1979 10.7318 18.3873 11.0363 18.3474C11.2541 18.3195 11.234 18.3985 11.213 18.4551C11.1924 18.5124 11.163 18.6652 10.8584 18.6829C10.7891 18.6875 9.94612 18.6758 9.66895 18.2013C9.48278 17.8829 9.56394 17.7979 9.40221 17.4228C9.29442 17.169 9.17996 17.194 9.10329 16.9716C9.03828 16.7844 9.06495 16.6588 9.06772 16.5183C9.0705 16.3772 9.10439 16.3055 9.23608 16.3982C9.36776 16.4916 9.48939 16.6038 9.51389 16.6333C9.51389 16.6333 9.51441 16.5183 9.35609 16.2404C9.19829 15.9616 8.08984 14.9859 8.46821 13.7014C8.46821 13.7014 7.92149 13.4812 7.67535 14.2664C7.67535 14.2664 7.53645 13.9496 7.78092 13.5813C7.96428 13.3047 8.26097 13.2746 8.11317 12.6273C8.00038 12.1333 7.86204 11.8 8.19207 11.3144C8.52211 10.8294 8.81825 10.9216 8.81269 10.7159C8.8088 10.5698 8.21986 10.4454 7.8387 11.0738C7.8387 11.0738 7.40643 9.65974 9.51104 9.29917C9.51104 9.29917 8.93327 9.05638 8.15984 9.50481C7.38587 9.95364 7.45699 10.94 7.56645 11.4444C7.67647 11.9489 7.97872 12.6017 7.03306 13.2707C6.38744 13.7263 6.57301 14.1531 6.58302 14.6543C6.59357 15.156 6.33243 15.771 6.01907 16.1655C6.01907 16.1655 5.72292 15.0931 6.12741 14.1786C6.53301 13.2651 6.82748 13.1452 6.9475 12.884C7.06585 12.6234 6.94083 12.6489 6.74192 12.7585C6.54189 12.8667 5.08619 13.7213 5.5779 16.7944C5.5779 16.7944 4.39389 15.726 4.44834 14.0536C4.5039 12.3812 5.11675 11.5711 5.55068 11.2116C5.98518 10.8521 6.21297 10.7082 6.25075 11.0861C6.28909 11.4639 6.23354 11.5305 6.03963 11.7539C5.84405 11.9772 5.7157 12.3051 5.73347 12.5929C5.73347 12.5929 6.00684 12.1122 6.40744 11.8783C6.69969 11.7072 6.79525 11.2293 6.80137 10.8771C6.80748 10.5248 7.03473 9.81868 7.60701 9.20194C8.17929 8.58577 8.17041 7.89846 7.52367 8.31851C6.87804 8.73855 6.46077 8.85302 6.1013 8.55465C6.1013 8.55465 6.473 8.48353 6.51301 8.09849C6.55412 7.71345 6.93916 7.38453 7.51589 7.5851C8.09318 7.78679 8.63545 8.37796 8.92827 8.46297C9.22052 8.54743 9.75607 8.64856 9.97115 8.9308C9.97115 8.9308 9.8323 8.03293 10.3484 7.9557C10.3484 7.9557 10.2928 7.21673 9.53334 7.38174C8.8666 7.52788 9.06772 8.13294 9.06772 8.13294C9.06772 8.13294 8.19596 7.60233 8.71825 6.9456C9.22218 6.31218 10.0961 6.35163 10.5013 6.81113C10.5013 6.81113 10.6568 6.51554 10.449 6.27997C10.2407 6.04382 9.93277 6.32329 9.81169 6.06606C9.68995 5.8088 10.0445 5.66045 9.75166 5.03705C9.45893 4.41254 8.70157 4.19251 8.2682 3.96248C7.83481 3.73191 7.56534 3.19519 7.69591 2.55678C7.69591 2.55678 8.45489 3.47243 9.48615 3.46022C10.3973 3.4491 10.8523 3.20352 11.4291 3.4341C12.0053 3.66468 12.2087 4.07473 12.252 4.42643C12.252 4.42643 12.4831 4.2403 12.4142 3.9197C12.3463 3.59912 12.3286 3.49577 12.5986 3.2513C12.5986 3.2513 12.5298 3.76969 13.2487 4.22363C13.9688 4.67812 14.6128 4.85314 14.6699 5.83713C14.6833 6.05882 14.4511 6.87169 13.8811 7.1495C13.6076 7.28174 13.1409 7.16783 13.1409 7.16783C13.1409 7.16783 14.3383 6.2105 13.1548 5.26763C13.1548 5.26763 13.4615 5.86381 12.8993 6.40664C12.8993 6.40664 13.1332 5.68379 12.6353 5.56099C12.6353 5.56099 12.8731 5.86547 12.5126 6.29441C12.1514 6.72445 12.4715 6.98282 12.8831 7.24618C12.8831 7.24618 12.2258 7.55899 11.9085 7.14783C11.6985 6.87503 12.0563 6.44831 11.9319 5.98937C11.9141 5.9227 11.858 5.54599 11.0613 5.21374C10.265 4.88092 10.2867 4.80257 10.1056 4.60757C10.1056 4.60757 10.1311 4.86314 10.3574 5.15207C10.6102 5.47654 10.909 5.53266 11.0152 5.72601C11.1207 5.9177 11.1302 6.1944 11.2157 6.30496C11.3429 6.46887 11.5101 6.51776 11.5835 6.705C11.6574 6.89169 11.7196 7.10339 11.5708 7.53232C11.5708 7.53232 11.3102 7.57954 11.3312 7.25062C11.3513 6.9228 11.2719 6.78113 11.0179 6.77279C11.0179 6.77279 11.1508 6.93058 11.1401 7.15506C11.129 7.37841 10.9262 7.49398 10.968 7.60122C11.0169 7.72679 11.199 7.75735 11.3624 7.9407C11.5252 8.12404 11.7902 8.33685 11.9892 8.64966C12.1886 8.96303 12.4342 9.51752 12.1314 9.3464C11.8275 9.17416 11.683 9.04526 11.3835 9.09693C11.0847 9.1486 10.9857 9.46527 10.9695 9.84202C10.9529 10.2188 10.8873 10.2293 10.6712 10.3943C10.4556 10.5593 10.2884 10.6332 10.1401 10.9999C9.99059 11.3655 9.68554 11.5655 9.46437 11.6778C9.24274 11.7894 8.81548 11.9378 8.92271 12.4945C9.02995 13.0512 9.39999 13.5869 9.62837 13.793C9.62837 13.793 9.66726 13.4929 9.59272 13.2479C9.51947 13.0023 9.37831 12.6229 9.52608 12.1744C9.67335 11.7266 9.95002 11.6189 10.0167 11.5966C10.0834 11.5755 10.2234 11.521 10.3829 11.1688C10.5412 10.8177 10.6623 10.7105 11.0001 10.6337C11.3385 10.556 12.0736 10.5904 12.3403 10.9149C12.6069 11.2394 12.4125 11.441 12.737 11.7845C13.0609 12.1278 13.3104 12.1012 13.6071 12.1639C13.9249 12.2323 14.9434 12.6729 14.7305 12.4C14.5362 12.1501 14.42 12.0795 14.2078 11.9551C13.991 11.8272 13.7799 11.7606 13.6443 11.4622C13.5332 11.2177 13.5221 11.1216 13.5087 11.0649C13.4965 11.0083 13.496 10.9172 13.6065 10.8871C13.7171 10.8583 14.0066 10.8277 14.0727 10.5343C14.1254 10.301 14.026 9.95092 13.9905 9.87041C13.9166 9.702 13.7188 9.69863 13.622 9.60529C13.4832 9.47201 13.0581 8.89857 12.8709 8.78801C12.7703 8.72856 12.4919 8.64244 12.4003 8.60021ZM14.7611 15.9827C14.7611 15.9827 14.536 16.056 14.3493 15.9604C14.3493 15.9604 14.1116 16.2594 13.8188 16.385C13.5632 16.4939 13.4299 16.5355 13.5688 16.3449C13.6755 16.1966 13.6944 16.2115 13.8271 16.0904C13.9604 15.9682 14.0538 15.8338 14.1344 15.766C14.2327 15.6821 14.3311 15.7243 14.7611 15.9827Z" fill="url(#paint0_linear_364_7933)"/>
<path d="M16.3299 15.4793C15.3282 17.144 13.8141 18.8641 11.525 20.261C11.3189 20.1347 11.1159 20.0038 10.916 19.8682C11.0917 19.835 11.2584 19.7651 11.4052 19.6631C11.5519 19.5609 11.6756 19.4291 11.7678 19.2758C11.9727 18.9414 12.0106 18.5813 12.1966 18.4369C12.394 18.2835 12.6534 18.2213 12.849 18.0069C13.2256 17.5957 13.2396 17.1051 13.2396 17.1051C13.2396 17.1051 13.3763 17.099 13.5024 17.0734C13.638 17.0456 13.7686 16.9923 13.9313 16.9889C14.168 16.985 14.4697 17.1039 14.7008 17.0523C14.982 16.9889 15.1787 16.9167 15.2859 16.8217C15.7726 16.3894 15.706 15.9488 15.8898 15.8049C15.9894 15.7261 16.1615 15.621 16.3299 15.4793ZM16.8577 14.5182C18.2868 11.6533 18.2879 9.18865 18.2879 9.18865C17.4722 8.65359 16.3355 7.98018 14.2764 7.65237C14.3364 7.84628 14.4014 8.08464 14.4181 8.25189C14.4353 8.42856 14.4869 8.38522 14.6031 8.48246C14.7203 8.5808 14.9058 8.76472 14.9736 8.94363C15.0414 9.12364 15.0859 9.36589 15.1493 9.53143C15.2125 9.69763 15.3737 10.1649 15.3837 10.3815C15.3931 10.5971 15.1743 11.1311 15.2665 11.3149C15.4738 11.7306 16.1537 11.9661 16.3577 12.3845C16.5327 12.744 16.5388 12.9647 16.601 13.2452C16.6638 13.5252 16.95 14.0024 16.8645 14.482L16.8577 14.5182Z" fill="url(#paint1_linear_364_7933)"/>
<path d="M3.18062 10.3921C3.10712 9.75477 3.09206 9.11197 3.1356 8.47187C3.42249 8.29018 3.71296 8.11421 4.00681 7.94404C4.05682 8.00404 4.15516 8.11072 4.25961 8.1485C4.25961 8.1485 3.46509 8.69078 3.59621 9.85589C3.59621 9.85589 3.33896 10.0882 3.18062 10.3921ZM20.8653 8.47187C19.4112 7.55566 17.9505 6.76335 15.7353 6.34775C15.6989 6.61815 15.5978 6.8758 15.4408 7.09894C17.8122 7.49621 19.1378 8.26962 20.0946 8.85246C20.0946 8.85246 20.5325 16.571 11.9994 21.071C10.1846 20.112 8.77566 19.0135 7.68166 17.8762C7.65832 18.2062 7.75945 18.7585 8.24061 19.5541C9.33516 20.4832 10.5781 21.28 12.0004 22C15.1541 20.4054 17.4243 18.4318 19.1429 15.4888C20.5192 13.0923 21.0125 10.4677 20.8653 8.47187Z" fill="url(#paint2_linear_364_7933)"/>
<defs>
<linearGradient id="paint0_linear_364_7933" x1="3.18629" y1="14.1017" x2="19.4543" y2="8.67717" gradientUnits="userSpaceOnUse">
<stop stop-color="#B59978"/>
<stop offset="0.201" stop-color="#BFA480"/>
<stop offset="0.751" stop-color="#EDCFA5"/>
</linearGradient>
<linearGradient id="paint1_linear_364_7933" x1="-1.10966" y1="14.9732" x2="23.0639" y2="8.66727" gradientUnits="userSpaceOnUse">
<stop stop-color="#8F191C"/>
<stop offset="0.25" stop-color="#89181A"/>
<stop offset="0.65" stop-color="#9E1D20"/>
<stop offset="1" stop-color="#89181A"/>
</linearGradient>
<linearGradient id="paint2_linear_364_7933" x1="5.84534" y1="15.9515" x2="20.2486" y2="7.51664" gradientUnits="userSpaceOnUse">
<stop offset="0.25" stop-color="#A89C8E"/>
<stop offset="0.65" stop-color="#DFD1C0"/>
<stop offset="1" stop-color="#B0A495"/>
</linearGradient>
</defs>
</svg>

<svg xmlns="http://www.w3.org/2000/svg" width="24" height="24" fill="none" viewBox="0 0 24 24">
    <path fill="url(#MRS__a)" d="M7.949 6.045s-.895.27-.435 1.233c0 0-.655-.333-1.142-.082s-1.189.59-1.738.194-.399-1.101-.28-1.628c.12-.528.094-1.313-.972-1.517 0 0 .925-.25 1.445.418.518.667.002 1.609.772 1.943s1.093-.945 2.35-.56M6.196 7.778s-.058.508-.553.569c0 0 .16 1.124 1.466.694 0 0-.16.882-.877 1.181-.716.299-2.392 1.144-2.23 3.826 0 0-.81-1.247-.156-3.483C4.178 9.43 5.422 8.9 5.422 8.9s-.655-.054-1.26.501c0 0 .475-1.434 2.034-1.622m2.253-1.74c-.465-.626-1.024-.55-1.502-.3-.436.23-1.067.509-1.385.098-.712-.922.14-1.622-.272-2.466-.483-.988-2.18-1.195-2.18-1.195 1.133-.331 2.495-.175 3.099.324.604.498.196 1.296.82 1.738.622.442 1.536-.028 2.069.546.531.573.389 1.17.228 1.39-.192.26-.59.1-.936.538s-.162.836-.162.836c-1.158-.92.221-1.51.221-1.51m7.483 8.921s-.158.138-.25.419c-.097.294-.14.644-.582.732 0 0 .141-.096.177-.172.116-.252.091-.792.655-.979m-4.386 1.92c.02-.034.022-.055.087-.047.065.007.39.02.538-.087.147-.109.174.016.134.106a.56.56 0 0 1-.18.217s.16.134.465.055c.306-.078.42-.128.345.018-.055.107-.189.157-.28.205-.08.044-.388.2-.459.25-.034.023-.061.026-.108-.004-.048-.03-.016-.12-.074-.161s-.138.014-.172.032c-.035.019-.069.04-.165.01-.096-.031-.261-.063-.245-.22s.091-.335.114-.375m-3.578-2.445s-.058.266.2.663c.257.396.98 1.377.374 2.772 0 0-.696-.443-.674-1.082.02-.64.24-.6.205-.992-.037-.391-.305-.956-.105-1.361m-.221-1.414s-.717.884-.227 1.845c.428.837.165 1.026-.288 1.854-.572 1.046.126 2.237.126 2.237-.666-.183-1.233-.876-1.186-1.905.02-.439.291-.99.632-1.565.32-.539-.144-.693.256-1.656.181-.436.687-.81.687-.81m5.195-2.267s-.005.166.102.166c.09 0 .087-.08.087-.08s.067.005.09-.007c0 0-.042.313-.269.313-.042 0-.087-.05-.087-.05-.036-.012-.061 0-.045.057.017.057.018.129.127.19.108.063.266.105.418.227.073.058.263.252.336.37s-.008.063-.07.03c-.042-.021-.303-.22-.456-.275s-.285-.042-.345-.13c-.058-.088-.162-.304-.166-.463s-.003-.169.037-.195zm.728-.633c.087.067.138.044.19.116.053.071-.037.286-.13.332-.093.045-.127-.037-.122-.057.003-.02.073-.128-.068-.253-.14-.125-.265-.158-.383-.056-.11.095-.113.115-.12.194s-.044.146-.247.214c-.202.069-.514.012-.796-.173s-.392-.413-.413-.57c0 0 .2.211.544.27 0 0 .145-.496.714-.572.189-.025.431.105.575.257.103.108.158.223.256.298M12.4 8.6c-.16-.073-.286-.135-.28-.285s.133-.304.368-.47c.235-.167.42-.223.583-.149.573.26.6.337.912.909.091.167.122.342.184.41.122.131.297.23.418.419.12.189.116.474.165.633.08.26.176.304.22.44.03.093.041.287.032.49-.009.201.013.267.034.386.02.119.017.235-.223.17-.24-.066-.23-.129-.296-.16-.11-.053-.268-.045-.373-.026-.184.033-.048.225.175.233.134.006.357.023.573.15.216.128.372.188.456.371.083.184.126.285.397.482.27.197.502.502.53.678.03.174.057.301.199.557a.67.67 0 0 1 .058.49c-.025.122-.068.213-.097.283s-.08.114-.15.03c-.071-.085-.178-.275-.223-.346-.145-.226-.596-.308-.716-.445-.111-.126-.143-.289-.18-.43-.037-.14-.085-.197-.133-.021-.046.177.023.43.122.65.1.22.262.7.225 1s-.15.532-.228.608c-.034.033-.134.074-.306.044-.172-.028-.768-.148-1.113-.202 0 0-.382.383-.746.59-.356.205-.333.021-.15-.207.178-.224.337-.494.342-.602 0 0-.199-.125.02-.134.216-.009.345.012.494.082.149.069.35.185.242-.04-.107-.224-.727-.768-.774-1.146-.045-.37.227-.864.553-.87s.86.325 1.028.863c0 0 .07-.158-.059-.396-.13-.237-.599-.779-.88-.772-.276.005-.649.12-.957.844-.2.47-.515.364-.582.346-.08-.022-.27-.259-.145-.356s.267-.21.315-.365c0 0-.738.362-1.25.098s-.352-.718-.382-.838c-.026-.098-.1-.094-.185.027-.086.12-.27.598.132.946.403.348.733.236.9.2s.234.025.176.124-.056.263.095.379c.152.115.655.233.645.502-.007.175-.114.08-.196.061-.148-.034-1.516-.378-2.3.631-.21.27-.115.294-.035.439.053.094.226.64.137 1.296-.073.532-.035.698.189.909.094.088.372.277.676.237.218-.027.198.051.177.108-.02.057-.05.21-.355.228-.069.005-.912-.007-1.189-.482-.186-.318-.105-.403-.267-.778-.108-.254-.222-.229-.299-.451-.065-.188-.038-.313-.035-.454.002-.14.036-.213.168-.12.132.094.253.206.278.235 0 0 0-.115-.158-.393s-1.266-1.254-.888-2.539c0 0-.547-.22-.793.565 0 0-.139-.316.106-.685.183-.276.48-.306.332-.954-.113-.494-.251-.827.08-1.313.33-.485.625-.392.62-.598-.004-.146-.593-.27-.974.358 0 0-.433-1.414 1.672-1.775 0 0-.578-.243-1.351.206-.774.449-.703 1.435-.594 1.94.11.504.413 1.157-.533 1.826-.646.455-.46.882-.45 1.383.01.502-.25 1.117-.564 1.512 0 0-.296-1.073.108-1.987.406-.914.7-1.034.82-1.295.119-.26-.006-.235-.205-.126-.2.109-1.656.963-1.164 4.036 0 0-1.184-1.068-1.13-2.74.056-1.673.669-2.483 1.103-2.842.434-.36.662-.504.7-.126s-.017.444-.211.668c-.196.223-.324.551-.307.839 0 0 .274-.48.674-.715.293-.17.388-.649.394-1 .006-.353.234-1.06.806-1.676s.563-1.304-.083-.883c-.646.42-1.063.534-1.423.236 0 0 .372-.071.412-.457.041-.385.426-.713 1.003-.513.577.202 1.12.793 1.412.878.293.084.828.186 1.043.468 0 0-.139-.898.377-.975 0 0-.055-.74-.815-.574-.666.146-.465.75-.465.75s-.872-.53-.35-1.186c.504-.634 1.378-.594 1.783-.135 0 0 .156-.295-.052-.531s-.516.043-.637-.214c-.122-.257.232-.406-.06-1.029-.293-.624-1.05-.844-1.484-1.075s-.703-.767-.572-1.405c0 0 .759.915 1.79.903.911-.01 1.366-.256 1.943-.026.576.23.78.64.823.992 0 0 .231-.186.162-.506-.068-.32-.085-.424.185-.669 0 0-.07.519.65.973s1.364.63 1.42 1.613c.014.222-.218 1.035-.788 1.313-.273.132-.74.018-.74.018s1.197-.958.014-1.9c0 0 .306.596-.256 1.139 0 0 .234-.723-.264-.846 0 0 .238.304-.122.733-.362.43-.041.689.37.952 0 0-.657.313-.974-.098-.21-.273.147-.7.023-1.159-.018-.066-.074-.443-.87-.775-.797-.333-.775-.411-.956-.606 0 0 .025.255.251.544.253.325.552.38.658.574.106.192.115.468.2.579.128.164.295.213.369.4.073.187.136.398-.013.827 0 0-.26.048-.24-.281.02-.328-.06-.47-.313-.478 0 0 .133.158.122.382-.011.223-.214.339-.172.446.049.126.231.156.394.34.163.183.428.396.627.709.2.313.445.868.142.696s-.448-.3-.748-.25c-.298.053-.397.37-.413.746-.017.377-.083.387-.299.552s-.383.24-.53.606c-.15.366-.455.566-.677.678-.221.111-.649.26-.541.816.107.557.477 1.093.705 1.299 0 0 .04-.3-.035-.545-.074-.246-.215-.625-.067-1.074.147-.447.424-.555.49-.577.067-.021.207-.076.367-.428.158-.351.28-.459.617-.535.338-.078 1.074-.044 1.34.28.267.325.072.527.397.87.324.344.573.317.87.38.318.068 1.336.509 1.124.236-.195-.25-.311-.32-.523-.445-.217-.128-.428-.194-.564-.493-.11-.244-.122-.34-.135-.397s-.013-.148.098-.178c.11-.029.4-.06.466-.353.052-.233-.047-.583-.082-.664-.074-.168-.272-.171-.369-.265-.139-.133-.564-.706-.751-.817-.1-.06-.38-.146-.47-.188m2.361 7.383s-.225.073-.412-.023c0 0-.237.3-.53.425-.256.109-.39.15-.25-.04.106-.148.125-.133.258-.255s.227-.256.307-.324c.099-.084.197-.042.627.217"/>
    <path fill="url(#MRS__b)" d="M16.33 15.48c-1.002 1.664-2.516 3.384-4.805 4.781q-.31-.189-.609-.393a1.27 1.27 0 0 0 .852-.592c.205-.335.243-.695.429-.84.197-.152.456-.215.652-.43.377-.41.39-.9.39-.9s.137-.007.263-.033c.136-.027.267-.08.43-.084.236-.004.538.115.769.063.281-.063.478-.135.585-.23.487-.433.42-.873.604-1.017.1-.079.271-.184.44-.326m.528-.962c1.429-2.865 1.43-5.33 1.43-5.33-.816-.534-1.953-1.208-4.012-1.536.06.194.125.433.142.6.017.177.069.133.185.23.117.099.303.283.37.462.068.18.113.422.176.587.064.167.225.634.235.85s-.21.75-.117.934c.207.416.887.651 1.09 1.07.176.359.182.58.244.86.063.28.349.757.264 1.237z"/>
    <path fill="url(#MRS__c)" d="M3.18 10.392a10.5 10.5 0 0 1-.044-1.92 26 26 0 0 1 .87-.528.7.7 0 0 0 .254.205s-.795.542-.664 1.707c0 0-.257.232-.415.536m17.685-1.92c-1.454-.916-2.914-1.709-5.13-2.124a1.7 1.7 0 0 1-.294.75c2.371.398 3.697 1.172 4.654 1.754 0 0 .438 7.719-8.096 12.219-1.814-.959-3.223-2.058-4.317-3.195-.024.33.077.883.559 1.678 1.094.93 2.337 1.726 3.76 2.446 3.153-1.595 5.423-3.568 7.142-6.511 1.376-2.397 1.87-5.021 1.722-7.017"/>
    <defs>
        <linearGradient id="MRS__a" x1="3.186" x2="19.454" y1="14.102" y2="8.677" gradientUnits="userSpaceOnUse">
            <stop stop-color="#B59978"/>
            <stop offset=".201" stop-color="#BFA480"/>
            <stop offset=".751" stop-color="#EDCFA5"/>
        </linearGradient>
        <linearGradient id="MRS__b" x1="-1.11" x2="23.064" y1="14.973" y2="8.667" gradientUnits="userSpaceOnUse">
            <stop stop-color="#8F191C"/>
            <stop offset=".25" stop-color="#89181A"/>
            <stop offset=".65" stop-color="#9E1D20"/>
            <stop offset="1" stop-color="#89181A"/>
        </linearGradient>
        <linearGradient id="MRS__c" x1="5.845" x2="20.249" y1="15.951" y2="7.517" gradientUnits="userSpaceOnUse">
            <stop offset=".25" stop-color="#A89C8E"/>
            <stop offset=".65" stop-color="#DFD1C0"/>
            <stop offset="1" stop-color="#B0A495"/>
        </linearGradient>
    </defs>
</svg>
